svgs/regular/h4.svg

<svg xmlns="http://www.w3.org/2000/svg" viewBox="0 0 640 512"><!--! Font Awesome Pro 6.6.0 by @fontawesome - https://fontawesome.com License - https://fontawesome.com/license (Commercial License) Copyright 2024 Fonticons, Inc. --><path d="M455.5 92.9L421.5 256 592 256l0-168c0-13.3 10.7-24 24-24s24 10.7 24 24l0 336c0 13.3-10.7 24-24 24s-24-10.7-24-24l0-120-200 0c-7.2 0-14.1-3.3-18.6-8.9s-6.3-13-4.9-20l40-192c2.7-13 15.4-21.3 28.4-18.6s21.3 15.4 18.6 28.4zM24 64c13.3 0 24 10.7 24 24l0 136 224 0 0-136c0-13.3 10.7-24 24-24s24 10.7 24 24l0 160 0 176c0 13.3-10.7 24-24 24s-24-10.7-24-24l0-152L48 272l0 152c0 13.3-10.7 24-24 24s-24-10.7-24-24L0 248 0 88C0 74.7 10.7 64 24 64z"/></svg>

<svg xmlns="http://www.w3.org/2000/svg" viewBox="0 0 640 512"><!--! Font Awesome Pro 6.4.2 by @fontawesome - https://fontawesome.com License - https://fontawesome.com/license (Commercial License) Copyright 2023 Fonticons, Inc. --><path d="M455.5 92.9L421.5 256H592V88c0-13.3 10.7-24 24-24s24 10.7 24 24V424c0 13.3-10.7 24-24 24s-24-10.7-24-24V304H392c-7.2 0-14.1-3.3-18.6-8.9s-6.3-13-4.9-20l40-192c2.7-13 15.4-21.3 28.4-18.6s21.3 15.4 18.6 28.4zM24 64c13.3 0 24 10.7 24 24V224H272V88c0-13.3 10.7-24 24-24s24 10.7 24 24V248 424c0 13.3-10.7 24-24 24s-24-10.7-24-24V272H48V424c0 13.3-10.7 24-24 24s-24-10.7-24-24V248 88C0 74.7 10.7 64 24 64z"/></svg>
